Numix-GalliumOS/32/devices/media-jaz.svg

<?xml version="1.0" encoding="UTF-8" standalone="no"?>
<svg
   xmlns:dc="http://purl.org/dc/elements/1.1/"
   xmlns:cc="http://creativecommons.org/ns#"
   xmlns:rdf="http://www.w3.org/1999/02/22-rdf-syntax-ns#"
   xmlns:svg="http://www.w3.org/2000/svg"
   xmlns="http://www.w3.org/2000/svg"
   xmlns:sodipodi="http://sodipodi.sourceforge.net/DTD/sodipodi-0.dtd"
   xmlns:inkscape="http://www.inkscape.org/namespaces/inkscape"
   width="32"
   height="32"
   viewBox="0 0 32 32"
   id="svg1215"
   version="1.1"
   inkscape:version="0.91 r"
   sodipodi:docname="media-jaz.svg">
  <metadata
     id="metadata1231">
    <rdf:RDF>
      <cc:Work
         rdf:about="">
        <dc:format>image/svg+xml</dc:format>
        <dc:type
           rdf:resource="http://purl.org/dc/dcmitype/StillImage" />
      </cc:Work>
    </rdf:RDF>
  </metadata>
  <defs
     id="defs1229" />
  <sodipodi:namedview
     pagecolor="#ffffff"
     bordercolor="#666666"
     borderopacity="1"
     objecttolerance="10"
     gridtolerance="10"
     guidetolerance="10"
     inkscape:pageopacity="0"
     inkscape:pageshadow="2"
     inkscape:window-width="640"
     inkscape:window-height="480"
     id="namedview1227" />
  <g
     style="fill:#909ea9"
     id="g1217">
    <path
       d="M 9 5.332031 C 8.917969 5.347656 8.839844 5.375 8.769531 5.417969 L 5.644531 7.355469 C 5.457031 7.472656 5.335938 7.691406 5.332031 7.917969 L 5.332031 25.355469 C 5.332031 25.703125 5.652344 26.019531 6 26.019531 L 8.457031 26.019531 C 8.46875 26.363281 8.78125 26.667969 9.125 26.667969 L 22.875 26.667969 C 23.21875 26.667969 23.53125 26.363281 23.542969 26.019531 L 26 26.019531 C 26.347656 26.019531 26.667969 25.703125 26.667969 25.355469 L 26.667969 7.917969 C 26.664062 7.691406 26.542969 7.472656 26.355469 7.355469 L 23.230469 5.417969 C 23.121094 5.355469 22.996094 5.328125 22.875 5.332031 L 9.125 5.332031 C 9.082031 5.328125 9.042969 5.328125 9 5.332031 Z M 9.332031 6.667969 L 23.332031 6.667969 L 25.332031 8 L 25.332031 24.667969 L 23.332031 24.667969 L 23.332031 18 L 8.667969 18 L 8.667969 24.667969 L 6.667969 24.667969 L 6.667969 8 Z M 9.332031 20.667969 L 22.667969 20.667969 L 22.667969 21.332031 L 9.332031 21.332031 Z M 9.332031 23.332031 L 22.667969 23.332031 L 22.667969 24 L 9.332031 24 Z "
       id="path1219" />
    <path
       d="M 15 6 L 12.667969 6 L 12.667969 8 L 22 8 L 22 6 Z "
       id="path1221" />
    <path
       d="M 9.332031 16.667969 L 9.332031 12 L 18.667969 12 L 18.667969 16.667969 Z "
       id="path1223" />
    <path
       d="M 20 12 L 20 16.667969 L 22.667969 16.667969 L 22.667969 12 Z "
       id="path1225" />
  </g>
</svg>

<svg xmlns="http://www.w3.org/2000/svg" viewBox="0 0 32 32">
 <g style="fill:#909ea9">
  <path d="m 9 5.332 c -0.082 0.016 -0.16 0.043 -0.23 0.086 l -3.125 1.938 c -0.188 0.117 -0.309 0.336 -0.313 0.563 l 0 17.438 c 0 0.348 0.32 0.664 0.668 0.664 l 2.457 0 c 0.012 0.344 0.324 0.648 0.668 0.648 l 13.75 0 c 0.344 0 0.656 -0.305 0.668 -0.648 l 2.457 0 c 0.348 0 0.668 -0.316 0.668 -0.664 l 0 -17.438 c -0.004 -0.227 -0.125 -0.445 -0.313 -0.563 l -3.125 -1.938 c -0.109 -0.063 -0.234 -0.09 -0.355 -0.086 l -13.75 0 c -0.043 -0.004 -0.082 -0.004 -0.125 0 m 0.332 1.336 l 14 0 l 2 1.332 l 0 16.668 l -2 0 l 0 -6.668 l -14.664 0 l 0 6.668 l -2 0 l 0 -16.668 m 2.664 12.668 l 13.336 0 l 0 0.664 l -13.336 0 m 0 2 l 13.336 0 l 0 0.668 l -13.336 0 Z"/>
  <path d="m 15 6 l -2.332 0 l 0 2 l 9.332 0 l 0 -2 Z"/>
  <path d="m 9.332 16.668 l 0 -4.668 l 9.336 0 l 0 4.668 Z"/>
  <path d="m 20 12 l 0 4.668 l 2.668 0 l 0 -4.668 Z"/>
 </g>
</svg>
